X:1
T:Title
%%score { ( 1 3 4 ) | 2 }
L:1/8
Q:1/4=120
M:6/8
K:G
V:1 treble nm="Grand Piano"
V:3 treble 
V:4 treble 
V:2 treble 
V:1
 d3- dGA | B3- BAG | E3 [EA]2 [EB] | [EA]6 | [Fc]3- [Fc][DF][EG] | [FA]3- [FA][EG]F | G3 B2 e | %7
w: J.~M.~Stillman * * *|||||||
 d6 | d3- dGA | B3- BAG | E3 [Ec]2 [Ed] | [Ec]6 | c3- cBA | G3- GFE | D3 B2 A | [B,G]6 | %16
w: |||||||||
 [DF]3 [FA]2 [GB] | [FA]3 [DF]2 [FA] | [GB]3 [FA]2 [FA] | [FA]6 | [^CEB]3 [CE]2 [DF] | %21
w: |||||
 [EG] [EG]2 [FA]3 | [EG]3 F2 F | F6 | F3 [FA]2 [GB] | [FA]2 [EG] [DF]3 | [GB]3 [FA]2 [FA] | [FA]6 | %28
w: |||||||
 B3 d2 ^c | e2 d B3 | A3 B2 ^c | [Fd]6 | d3- d G2 | .B6 | E2 E [EA]2 [EB] | A6 | .c6 | .A6 | %38
w: ||||||||||
 G3 .B3 | d6 | d3- d G2 | .B6 | E2 E [Ec]2 [Ed] | c6 | .e6 | .B6 | A3 .G3 | G6 |] %48
w: ||||||||||
V:2
 [G,B,G]3- [G,B,G][G,B,][G,CG] | [G,DG]3- [G,DG][K:bass][G,CD][G,B,D] | [C,C]3 [C,C]2 [C,C] | %3
 [C,C]6 | [D,A,]3- [D,A,][D,A,][D,A,] | [D,D]3- [D,D][D,A,][D,A,D] | [G,B,D]3 [G,DG]2 [G,CG] | %7
 [G,B,G]6 | [G,B,G]3- [G,B,G][G,B,][G,CG] | [G,DG]3- [G,DG][K:bass][G,CD][G,B,D] | %10
 [C,C]3 [C,G,]2 [C,G,] | [C,G,]6 | [D,F,D]3- [D,F,D][D,F,D][D,F,C] | %13
 [E,G,B,]3- [E,G,B,][D,G,B,][C,G,C] | [D,G,B,]3 [D,F,D]2 [D,F,C] | [G,,G,]6 | %16
 [D,A,]3 [D,D]2 [D,D] | [D,D]3 [D,A,]2 [D,D] | [D,D]3 [D,D]2 [D,D] | [D,D]6 | %20
 A,,3 [A,,A,]2 [A,,A,] | [A,,A,] [A,,A,]2 [A,,A,]3 | [D,A,]3 [D,A,D]2 [D,A,D] | [D,A,D]6 | %24
 [D,A,D]3 [D,D]2 [D,D] | [D,D]2 [D,A,] [D,A,]3 | [D,D]3 [D,D]2 [D,D] | [D,D]6 | %28
 [G,DG]3 [G,B,G]2 [G,_B,G] | [G,B,G]2 [G,B,G] [G,DG]3 | [A,^CG]3 [A,DG]2 [A,EG] | [D,D]3 .D,3 | %32
 [G,B,G]3 [G,B,]3 | [G,DG]3[K:bass] [G,B,]3 | [C,C]2 [C,C] [C,C]2 [C,C] | [C,C][C,C][C,C] .[C,C]3 | %36
 [D,A,]3 [D,A,]3 | [D,D]3 [D,C]3 | [G,B,D][G,B,][G,B,][K:treble] [G,DG][G,D][G,CG] | %39
 [G,B,G][G,B,][G,B,] .[G,B,]3 | [G,B,G]3 [G,B,]3 | [G,DG]3[K:bass] [G,B,]3 | %42
 [C,C]2 [C,G,] .[C,G,]3 | [C,G,][C,G,][C,G,] .[C,G,]3 | [C,C]3 C,3 | [G,DG]3 [G,B,]3 | %46
 [D,C][D,C][D,C] [D,CD][D,B,][D,A,D] | G,,G,,G,, G,,3 |] %48
V:3
 x6 | x6 | x6 | x6 | x6 | x6 | x6 | x6 | x6 | x6 | x6 | x6 | x6 | x6 | x6 | x6 | x6 | x6 | x6 | %19
 x6 | x6 | x6 | x6 | x6 | x6 | x6 | x6 | x6 | x6 | x6 | x6 | z3 .C3 | z3 .G2 A | z3 z AG | x6 | %35
 EEE .E3 | F3 z FG | F3 z GF | z DD z Ge | z GG .G3 | z3 .G2 A | z3 z AG | x6 | EEE .E3 | G3 z dc | %45
 z3 z AG | FFF z DF | [B,D][B,D][CE] [B,D]3 |] %48
V:4
 x6 | x6 | x6 | x6 | x6 | x6 | x6 | x6 | x6 | x6 | x6 | x6 | x6 | x6 | x6 | x6 | x6 | x6 | x6 | %19
 x6 | x6 | x6 | x6 | x6 | x6 | x6 | x6 | x6 | x6 | x6 | x6 | x6 | x6 | z3 D3 | x6 | x6 | z3 D3 | %37
 z3 D3 | x6 | x6 | x6 | z3 D3 | x6 | x6 | z3 [EG]3 | z3 D3 | x6 | x6 |] %48

